X:1
T:Salvation’s River
T:Salvation’s River
T:Stephen Collins  Foster, 1851
T:Russell Kelso Carter, 1889
T:Public Domain Courtesy of the Cyber Hymnal™
T:Public Domain Courtesy of the Cyber Hymnal™
C:Stephen Collins  Foster, 1851
Z:Public Domain
Z:Courtesy of the Cyber Hymnal™
%%score ( 1 2 ) ( 3 4 )
L:1/8
Q:1/4=102
M:4/4
K:D
V:1 treble 
V:2 treble 
V:3 bass 
V:4 bass 
V:1
 [DF]4 [CE]D [DF]>[CE] | D2 [Fd]2 [GB] [Gd]3 | [FA]4 [DF]2 D2 | [CE]6 z2 | [DF]4 [CE]D [DF]>[CE] | %5
w: 1.~Down at the cross, on|Cal- v’ry’s moun- tain,|Where mer- cies|flow,|I plunged in the re-|
w: 2.~When lost in sin, my|all I squan- dered,|Far from the|fold;|My Sav- ior sought me|
w: 3.~All round my way the|sun is shin- ing,|Dark- ness has|fled:|On Je- sus’ breast I|
 D2 [Fd]2 [GB] [Gd]3 | [FA]2 [DF][A,D] [CE]2 [CE]2 | D6 z2 | [DF]4 [CE]D [DF]>[CE] | %9
w: deem- ing foun- tain,|Washed whit- er than the|snow.|When no- thing in the|
w: where I wan- dered,|Gave me His wealth un-|told;|All bonds of sin and|
w: am re- clin- ing,|Dai- ly by Him I’m|fed.|My Lord has cast His|
 D2 [Fd]2 [GB] [Gd]3 | [FA]4 [DF]2 D2 | [CE]6 z2 | [DF]4 [CE]D [DF]>[CE] | D2 [Fd]2 [GB] [Gd]3 | %14
w: whole cre- a- tion|Could pur- chase|peace,|My Sav- ior brought His|free sal- va- tion,|
w: Sa- tan rend- ing,|Christ made me|whole;|I’ll ne’er for- get that|joy tran- scend- ing,|
w: robe a- round me,|No more I’ll|roam;|The Shep- herd of the|sheep has found me,|
 [FA]2 [DF][A,D] [CE]2 [CE]2 | D6 z2 ||"^Refrain" [Ec]3 [Ed] [Ee]2 [EA]2 | [FA]3 [GB] [FA]2 [Fd]2 | %18
w: Gave me com- plete re-|lease.|||
w: When Je- sus saved my|soul.|Bro- thers, won’t you|hear the sto- ry?|
w: Je- sus has brought me|home.|||
 [Gd]2 [GB]2 [DG]2 [GB]2 | [FA]8 | [DF]4 [CE]D [DF]>[CE] | D2 [Fd]2 [GB] [Gd]3 | %22
w: ||||
w: See the foun- tain|flow!|Oh, glo- ry in the|high- est, glo- ry!|
w: ||||
 [FA][FA][DF]D [CE]2 [CE]2 | D6 z2 |] %24
w: ||
w: Je- sus saves me, this I|know.|
w: ||
V:2
 x5 D x2 | D2 x6 | x6 D2 | x8 | x5 D x2 | D2 x6 | x8 | D6 x2 | x5 D x2 | D2 x6 | x6 D2 | x8 | %12
 x5 D x2 | D2 x6 | x8 | D6 x2 || x8 | x8 | x8 | x8 | x5 D x2 | D2 x6 | x3 D x4 | D6 x2 |] %24
V:3
 [D,A,]4 [D,G,][D,F,] [D,A,]>[E,G,] | [D,F,]2 [D,A,]2 G, [G,B,]3 | [D,D]4 [D,A,]2 [B,,^G,]2 | %3
 [A,,A,]6 z2 | [D,A,]4 [D,G,][D,F,] [D,A,]>[D,G,] | [D,F,]2 [D,A,]2 G, [G,B,]3 | %6
 [A,D]2 [A,,A,][A,,F,] [A,,A,]2 [A,,G,]2 | [D,F,]6 z2 | [D,A,]4 [D,G,][D,F,] [D,A,]>[E,G,] | %9
 [D,F,]2 [D,A,]2 G, [G,B,]3 | [D,D]4 [D,A,]2 [B,,^G,]2 | [A,,A,]6 z2 | %12
 [D,A,]4 [D,G,][D,F,] [D,A,]>[D,G,] | [D,F,]2 [D,A,]2 G, [G,B,]3 | %14
 [A,D]2 [A,,A,][A,,F,] [A,,A,]2 [A,,G,]2 | [D,F,]6 z2 || A,3 [A,B,] [A,C]2 [A,C]2 | %17
 [D,D]3 [D,D] [D,D]2 [D,A,]2 | [G,B,]2 [G,D]2 [G,B,]2 [G,D]2 | [D,D]8 | %20
 [D,A,]4 [D,G,][D,F,] [D,A,]>[D,G,] | [D,F,]2 [D,A,]2 G, [G,B,]3 | %22
 [A,D][A,D][A,,A,][A,,F,] (A,^G,) [A,,=G,]2 | [D,F,]6 z2 |] %24
V:4
 x8 | x4 G, x3 | x8 | x8 | x8 | x4 G, x3 | x8 | x8 | x8 | x4 G, x3 | x8 | x8 | x8 | x4 G, x3 | x8 | %15
 x8 || A,3 x5 | x8 | x8 | x8 | x8 | x4 G, x3 | x4 A,,2 x2 | x8 |] %24

